static/assets/template/assets/img/icons/essential/detailed/Videochat.svg

<svg height="150" viewBox="0 0 115 150" width="115" xmlns="http://www.w3.org/2000/svg"><g fill="none" fill-rule="evenodd" transform="translate(2 1)"><path d="m56.3 131.6c-.3 0-.5 0-.8.1-.2 0-.5 0-.8-.1-6.3-.4-30.2-2.3-23.6-7 7.5-5.4 13.8-18 13.8-28.5h21.1c0 10.5 6.3 23 13.8 28.5 6.7 4.7-17.2 6.6-23.5 7z" fill-rule="nonzero" stroke-linecap="round" stroke-linejoin="round" stroke-width="3.2"/><circle cx="55.5" cy="56.1" fill-rule="nonzero" r="55.3"/><path d="m107 59.9c0 28.4-23 51.4-51.4 51.4-20.7 0-38.6-12.3-46.7-29.9-3-6.5-4.7-13.8-4.7-21.5 0-28.4 23-51.4 51.4-51.4 22.1 0 41 14 48.3 33.6 1.9 5.6 3.1 11.6 3.1 17.8z" fill-rule="nonzero"/><path d="m103.8 43c0 30.5-24.8 55.3-55.3 55.3-15.6 0-29.7-6.4-39.7-16.8-3-6.5-4.7-13.8-4.7-21.5 0-28.4 23-51.4 51.4-51.4 22.1 0 41 14 48.3 33.6z" fill-rule="nonzero"/><g stroke-linecap="round" stroke-linejoin="round" stroke-width="3.2"><path d="m40.3 2.9c4.8-1.4 9.9-2.1 15.2-2.1 30.5 0 55.3 24.8 55.3 55.3s-24.8 55.3-55.3 55.3-55.3-24.8-55.3-55.3c0-16.3 7-30.9 18.2-41"/><path d="m23.4 11.1c.1-.1.3-.2.4-.3"/><path d="m38.9 31.4c4.8-3.2 10.5-5.1 16.6-5.1 16.5 0 29.8 13.3 29.8 29.8s-13.3 29.8-29.8 29.8-29.8-13.3-29.8-29.8c0-7.5 2.8-14.3 7.3-19.6" fill-rule="nonzero"/><circle cx="55.5" cy="56.2" fill-rule="nonzero" r="6.5"/><path d="m39.2 48.1c3-6 9.2-10.2 16.4-10.2 2.5 0 5 .5 7.2 1.5"/><path d="m37.4 57.3c0-.4 0-.8 0-1.2 0-.6 0-1.2.1-1.7"/></g><g transform="translate(14 126)"><path d="m69.4.2h-55.8c-7 0-12.7 5.7-12.7 12.7v7.6h81.2v-7.6c0-7-5.7-12.7-12.7-12.7z" fill-rule="nonzero"/><path d="m71 4.5h-56.4c-6.2 0-11.2 5-11.2 11.2v4.9h78.8v-4.9c-.1-6.2-5.1-11.2-11.2-11.2z" fill-rule="nonzero"/><path d="m15.4.2h-1.8c-7 0-12.7 5.7-12.7 12.7v7.6h81.2v-7.6c0-7-5.7-12.7-12.7-12.7h-44.9" stroke-linecap="round" stroke-linejoin="round" stroke-width="3.2"/></g></g></svg>

<?xml version="1.0" encoding="UTF-8"?>
<svg width="115px" height="150px" viewBox="0 0 115 150" version="1.1" xmlns="http://www.w3.org/2000/svg" xmlns:xlink="http://www.w3.org/1999/xlink">
    <!-- Generator: Sketch 51.2 (57519) - http://www.bohemiancoding.com/sketch -->
    <title>Videochat</title>
    <desc>Created with Sketch.</desc>
    <defs></defs>
    <g id="Page-1" stroke="none" stroke-width="1" fill="none" fill-rule="evenodd">
        <g id="Videochat" transform="translate(2.000000, 1.000000)">
            <path d="M56.3,131.6 C56,131.6 55.8,131.6 55.5,131.7 C55.3,131.7 55,131.7 54.7,131.6 C48.4,131.2 24.5,129.3 31.1,124.6 C38.6,119.2 44.9,106.6 44.9,96.1 L66,96.1 C66,106.6 72.3,119.1 79.8,124.6 C86.5,129.3 62.6,131.2 56.3,131.6 Z" id="Shape" class="stroke-primary" stroke-width="3.2" class="fill-primary-400" fill-rule="nonzero" stroke-linecap="round" stroke-linejoin="round"></path>
            <g id="Group">
                <circle id="Oval" class="fill-neutral" fill-rule="nonzero" cx="55.5" cy="56.1" r="55.3"></circle>
                <path d="M107,59.9 C107,88.3 84,111.3 55.6,111.3 C34.9,111.3 17,99 8.9,81.4 C5.9,74.9 4.2,67.6 4.2,59.9 C4.2,31.5 27.2,8.5 55.6,8.5 C77.7,8.5 96.6,22.5 103.9,42.1 C105.8,47.7 107,53.7 107,59.9 Z" id="Shape" class="fill-primary-200" fill-rule="nonzero"></path>
                <path d="M103.8,43 C103.8,73.5 79,98.3 48.5,98.3 C32.9,98.3 18.8,91.9 8.8,81.5 C5.8,75 4.1,67.7 4.1,60 C4.1,31.6 27.1,8.6 55.5,8.6 C77.6,8.6 96.5,22.6 103.8,42.2 C103.8,42.4 103.8,42.7 103.8,43 Z" id="Shape" class="fill-primary-100" fill-rule="nonzero"></path>
                <path d="M40.3,2.9 C45.1,1.5 50.2,0.8 55.5,0.8 C86,0.8 110.8,25.6 110.8,56.1 C110.8,86.6 86,111.4 55.5,111.4 C25,111.4 0.2,86.6 0.2,56.1 C0.2,39.8 7.2,25.2 18.4,15.1" id="Shape" class="stroke-primary" stroke-width="3.2" stroke-linecap="round" stroke-linejoin="round"></path>
                <path d="M23.4,11.1 C23.5,11 23.7,10.9 23.8,10.8" id="Shape" class="stroke-primary" stroke-width="3.2" stroke-linecap="round" stroke-linejoin="round"></path>
                <path d="M38.9,31.4 C43.7,28.2 49.4,26.3 55.5,26.3 C72,26.3 85.3,39.6 85.3,56.1 C85.3,72.6 72,85.9 55.5,85.9 C39,85.9 25.7,72.6 25.7,56.1 C25.7,48.6 28.5,41.8 33,36.5" id="Shape" class="stroke-primary" stroke-width="3.2" class="fill-primary-200" fill-rule="nonzero" stroke-linecap="round" stroke-linejoin="round"></path>
                <circle id="Oval" class="stroke-primary" stroke-width="3.2" class="fill-primary-400" fill-rule="nonzero" stroke-linecap="round" stroke-linejoin="round" cx="55.5" cy="56.2" r="6.5"></circle>
                <path d="M39.2,48.1 C42.2,42.1 48.4,37.9 55.6,37.9 C58.1,37.9 60.6,38.4 62.8,39.4" id="Shape" class="stroke-primary-300" stroke-width="3.2" stroke-linecap="round" stroke-linejoin="round"></path>
                <path d="M37.4,57.3 C37.4,56.9 37.4,56.5 37.4,56.1 C37.4,55.5 37.4,54.9 37.5,54.4" id="Shape" class="stroke-primary-300" stroke-width="3.2" stroke-linecap="round" stroke-linejoin="round"></path>
            </g>
            <g id="Group" transform="translate(14.000000, 126.000000)">
                <path d="M69.4,0.2 L13.6,0.2 C6.6,0.2 0.9,5.9 0.9,12.9 L0.9,20.5 L82.1,20.5 L82.1,12.9 C82.1,5.9 76.4,0.2 69.4,0.2 Z" id="Shape" class="fill-neutral" fill-rule="nonzero"></path>
                <path d="M71,4.5 L14.6,4.5 C8.4,4.5 3.4,9.5 3.4,15.7 L3.4,20.6 L82.2,20.6 L82.2,15.7 C82.1,9.5 77.1,4.5 71,4.5 Z" id="Shape" class="fill-primary-100" fill-rule="nonzero"></path>
                <path d="M15.4,0.2 L13.6,0.2 C6.6,0.2 0.9,5.9 0.9,12.9 L0.9,20.5 L82.1,20.5 L82.1,12.9 C82.1,5.9 76.4,0.2 69.4,0.2 L24.5,0.2" id="Shape" class="stroke-primary" stroke-width="3.2" stroke-linecap="round" stroke-linejoin="round"></path>
            </g>
        </g>
    </g>
</svg>
